X: 32502
T: Planxty Burke
R: waltz
M: 3/4
K: Edorian
M:6/8
|:B|EE/F/G/A/ B2 A|GG/A/B AFD|DFD dDA|DF/E/D AFD|
E/F/GE BGE|EGE eEc|d2 d def|d3 B2:|
|:d/e/|fed edc|dcB ABc|dcB edc|dcB AFD|
E/F/GE BGE|EGE BEe|d2 d dd/e/f|d3 B2:|
|:c|:B/c/dd de/d/c|de/d/c/B/ AF^D|E2 e ef/e/d|eBc d2 d/e/|
fed cBA|BB/c/d/B/ AF^D|EeA B/c/dF|G3 E2:|

